X:1
T:Will You Trust This Friend Today?
T:Will You Trust This Friend Today?
T:George W. Bacon
T:Ila May Livingstan, 1919
T:Public Domain Courtesy of the Cyber Hymnal™
T:Public Domain Courtesy of the Cyber Hymnal™
C:George W. Bacon
Z:Public Domain
Z:Courtesy of the Cyber Hymnal™
%%score ( 1 2 ) ( 3 4 )
L:1/8
Q:1/4=97
M:4/4
K:Bb
V:1 treble 
V:2 treble 
V:3 treble 
V:4 treble 
V:1
"^Female Voices" [FB]3 [FB] [DG][DF][FB][Fc] | [Bd]4 [FB]4 | [Bd]3 [Ac] B[FB][FA][FB] | [Ac]6 z2 | %4
w: 1.~Je- sus is the friend of|sin- ners,|Je- sus died our souls to|save;|
w: 2.~If in sin you choose to|wan- der,|Still re- ject His love so|true,|
w: 3.~Will you not in faith ac-|cept Him,|Trust the Christ who died for|you,|
w: 4.~When our jour- ney here is|end- ed,|When life’s race is ful- ly|run,|
 [FB]3 [FB] [DG][DF][FB][Fc] | [Bd]4 [FB]4 | [Bf]3 [Bd] [Ac][GB][Ac][Fc] | [FB]6 z2 || %8
w: On the cru- el cross He|suf- fered,|There His pre- cious life He|gave.|
w: You must part from friends and|loved ones,|Who are pray- ing now for|you.|
w: That when life on earth is|o- ver,|You His lov- ing face may|view?|
w: If we’ve fol- lowed Christ, our|Sav- ior,|We shall hear His sweet “Well|done!”|
"^Refrain" [DF]3 [^C=E] [DF][_EG][FB][F=c] | d4 c4 | [Ac]3 [^G=B] [Ac][_Bd][c=e][Bc] | f4 [ce]4 | %12
w: ||||
w: Sin- ner, come to Christ to-|day; Come,|ac- cept Him while you may;|Now His|
w: ||||
w: ||||
 [Bd]3 [Bd] [B^c][Bd][Be][Bc] | [Bd]4 [FB]4 | [Bf]3 [Bd] [Ac][GB][Ac][Fc] | [FB]6 z2 |] %16
w: ||||
w: * pre- cious blood will cleanse|you, Will|you come to Him to- day?||
w: ||||
w: ||||
V:2
 x8 | x8 | x4 B x3 | x8 | x8 | x8 | x8 | x8 || x8 | (BBBB G2 B2) | x8 | ABcd x4 | x8 | x8 | x8 | %15
 x8 |] %16
V:3
 [B,D]3 [B,D] [B,D][B,D][B,D][B,E] | [B,F]4 [B,D]4 | [B,F]3 [CF] [DF][DF][CF][DF] | F6 z2 | %4
w: ~ ~ ~ ~ ~ ~|~ ~|~ ~ ~ ~ ~ ~|~|
 [B,D]3 [B,D] [B,D][B,D][B,D][B,E] | [B,F]4 [B,D]4 | [DF]3 [B,F] [F,E][G,D][F,E][F,E] | %7
w: ~ ~ ~ ~ ~ ~|~ ~|~ ~ ~ ~ ~ ~|
 [B,D]6 z2 || B,3 B, B,B,[B,D][B,D] | [B,F][B,F][B,G][B,F] [C=E]4 | F3 F F[DF][CG][=EG] | %11
w: ~|~ ~ ~ ~ ~ ~|~ oh! come to- day,|~ ~ ~ ~ ~ ~|
 F[FG][FA][FB] [FA]4 | [B,F]3 [B,F] [B,=E][B,F][B,G][B,E] | [B,F]4 [B,D]4 | %14
w: ~ yes, while you may;|||
 [DF]3 [B,F] [F,E][G,D][F,E][F,E] | [B,D]6 z2 |] %16
w: ||
V:4
 x8 | x8 | x8 | F6 x2 | x8 | x8 | x8 | x8 || B,3 B, B,B, x2 | x8 | F3 F F x3 | F x7 | x8 | x8 | %14
 x8 | x8 |] %16

